lib/functional/maps&travel/airplane.svg

<svg xmlns="http://www.w3.org/2000/svg" fill="none" stroke="currentColor" aria-hidden="true" viewBox="0 0 32 32"><g id="Icon-Airplane"><g clip-path="url(#clip0_10_2224)"><g id="size=md (32px)"><g id="Airplane"><path id="Vector" stroke-linecap="round" stroke-linejoin="round" stroke-width="2" d="M16 27L11 29V25L13 23V19L3 21V17L13 12V6C13 5.20435 13.3161 4.44129 13.8787 3.87868C14.4413 3.31607 15.2044 3 16 3C16.7956 3 17.5587 3.31607 18.1213 3.87868C18.6839 4.44129 19 5.20435 19 6V12L29 17V21L19 19V23L21 25V29L16 27Z"/></g></g></g></g><defs><clipPath id="clip0_10_2224"><rect width="32" height="32" fill="white" rx="5"/></clipPath></defs></svg>

<svg xmlns="http://www.w3.org/2000/svg" fill="none" stroke="currentColor" aria-hidden="true" viewBox="0 0 32 32"><g clip-path="url(#a)"><path stroke-linecap="round" stroke-linejoin="round" stroke-width="2" d="m16 27-5 2v-4l2-2v-4L3 21v-4l10-5V6a3 3 0 0 1 6 0v6l10 5v4l-10-2v4l2 2v4l-5-2Z"/></g><defs><clipPath id="a"><rect width="32" height="32" fill="#fff" rx="5"/></clipPath></defs></svg>
